brandFactory_export/1.Light/Servicio tecnico tv_1Light.svg

<?xml version="1.0" encoding="UTF-8"?>
<svg width="24px" height="24px" viewBox="0 0 24 24" version="1.1" xmlns="http://www.w3.org/2000/svg" xmlns:xlink="http://www.w3.org/1999/xlink">
    <title>1.Light/Servicio tecnico tv_1Light</title>
    <g id="Symbols" stroke="none" stroke-width="1" fill="none" fill-rule="evenodd">
        <g id="1.Light/Servicio-tecnico-tv_1Light" fill="#5CB615" fill-rule="nonzero">
            <path d="M15.4151261,19.7983193 C15.6,19.7983193 15.7512605,19.9495798 15.7512605,20.1344538 C15.7512605,20.3193277 15.6033613,20.4705882 15.4151261,20.4705882 L8.20504202,20.4705882 C8.02016807,20.4705882 7.86890756,20.3193277 7.86890756,20.1344538 C7.86890756,19.9495798 8.02016807,19.7983193 8.20504202,19.7983193 L15.4151261,19.7983193 Z M20.0033613,4.02689076 C21.2201681,4.02689076 22.1445378,4.37983193 22.7529412,5.07563025 C23.3243697,5.73109244 23.6168067,6.69915966 23.6168067,7.95294118 L23.6168067,13.8789916 C23.6168067,15.1327731 23.3277311,16.1008403 22.7529412,16.7563025 C22.1478992,17.4554622 21.2201681,17.8084034 20.0033613,17.8084034 L3.61680672,17.8084034 C2.4,17.8084034 1.47563025,17.4554622 0.867226891,16.7596639 C0.295798319,16.1008403 0.00336134451,15.1327731 0.00336134451,13.8789916 L0.00336134451,7.95294118 C0.00336134451,6.69915966 0.292436975,5.73109244 0.867226891,5.07563025 C1.47563025,4.37983193 2.4,4.02689076 3.61680672,4.02689076 L20.0033613,4.02689076 Z M20.0033613,4.69915966 L3.61680672,4.69915966 C1.61008403,4.69915966 0.675630252,5.73445378 0.675630252,7.95630252 L0.675630252,13.8823529 C0.675630252,16.1042017 1.61008403,17.1394958 3.61680672,17.1394958 L20.0033613,17.1394958 C22.010084,17.1394958 22.9445378,16.1042017 22.9445378,13.8823529 L22.9445378,7.95294118 C22.9445378,5.73109244 22.010084,4.69915966 20.0033613,4.69915966 Z M15.7142857,6.38315603 C16.3865546,6.37983193 17.0151261,6.60504202 17.0789916,6.62521008 C17.3983193,6.74285714 17.6067227,7.01176471 17.6201681,7.32436975 C17.6336134,7.63697479 17.4487395,7.92268908 17.1394958,8.06722689 L17.1394958,8.06722689 L16.5478992,8.34285714 L16.4605042,8.76302521 L16.8369748,8.96470588 L17.4319328,8.68907563 C17.5495798,8.63193277 17.6773109,8.60168067 17.805042,8.60168067 C18.0470588,8.59831933 18.2756303,8.71596639 18.4168067,8.91428571 C18.5647059,9.12268908 18.5915966,9.39495798 18.497479,9.6605042 C18.4067227,9.90588235 18.292437,10.1378151 18.1613445,10.3630252 C17.8487395,10.9008403 17.4823529,11.2705882 17.0722689,11.4621849 C16.810084,11.5831933 16.5008403,11.6470588 16.1478992,11.6470588 C15.5294118,11.6470588 14.9478992,11.4588235 14.8067227,11.4084034 L14.8067227,11.4084034 L14.7932773,11.4084034 L10.2554622,13.5226891 L10.2453782,13.5327731 C10.1546218,13.7680672 10.0470588,13.9932773 9.91932773,14.2084034 C9.60672269,14.7462185 9.24033613,15.1159664 8.8302521,15.307563 C8.56806723,15.4285714 8.25546218,15.492437 7.90588235,15.492437 C7.23697479,15.492437 6.60840336,15.2705882 6.53781513,15.2436975 C6.21848739,15.1260504 6.00672269,14.8537815 5.99663866,14.5445378 C5.98655462,14.2352941 6.17142857,13.9495798 6.48067227,13.805042 L6.48067227,13.805042 L7.07226891,13.5294118 L7.15966387,13.1092437 L6.78319328,12.907563 L6.19159664,13.1831933 C6.07394958,13.2403361 5.94621849,13.2705882 5.81848739,13.2705882 C5.57647059,13.2739496 5.34789916,13.1563025 5.20672269,12.9579832 C5.05882353,12.7495798 5.03193277,12.4773109 5.12605042,12.2117647 C5.21680672,11.9663866 5.33109244,11.7344538 5.46218487,11.5092437 C5.77478992,10.9714286 6.14117647,10.6016807 6.5512605,10.410084 C6.81344538,10.2890756 7.12605042,10.2252101 7.47563025,10.2252101 C8.09411765,10.2252101 8.67563025,10.4134454 8.81680672,10.4638655 L8.81680672,10.4638655 L8.8302521,10.4638655 L13.3647059,8.34957983 L13.3747899,8.3394958 C13.4655462,8.10420168 13.5731092,7.8789916 13.7008403,7.66386555 C14.0168067,7.12605042 14.3831933,6.75630252 14.789916,6.56806723 C15.0521008,6.44705882 15.3613445,6.38315603 15.7142857,6.38315603 Z M15.7142857,7.05210084 C15.4890756,7.05546218 15.2638655,7.08907563 15.0756303,7.17647059 C14.3966387,7.49579832 14,8.59495798 14,8.59495798 C13.9361345,8.74957983 13.8218487,8.87394958 13.6773109,8.9512605 L13.6773109,8.9512605 L9.09243697,11.0890756 C9.00504202,11.1226891 8.91428571,11.1394958 8.82016807,11.1394958 C8.74957983,11.1394958 8.6789916,11.1294118 8.61176471,11.1058824 C8.61176471,11.1058824 8.04705882,10.897479 7.47563025,10.897479 C7.25042017,10.897479 7.02521008,10.9277311 6.83361345,11.0184874 C6.15462185,11.3378151 5.75798319,12.4369748 5.75798319,12.4369748 C5.72436975,12.5344538 5.7512605,12.594958 5.81848739,12.594958 C5.8487395,12.594958 5.8789916,12.5848739 5.90588235,12.5714286 L5.90588235,12.5714286 L6.56806723,12.2621849 C6.63529412,12.2319328 6.7092437,12.2184874 6.78319328,12.2184874 C6.86722689,12.2151261 6.95462185,12.2352941 7.03193277,12.2722689 L7.03193277,12.2722689 L7.6907563,12.6252101 C7.82184874,12.702521 7.88907563,12.8504202 7.86554622,13.0016807 L7.86554622,13.0016807 L7.71092437,13.7310924 C7.67058824,13.8857143 7.56302521,14.0168067 7.42184874,14.0941176 L7.42184874,14.0941176 L6.75966387,14.4033613 C6.63193277,14.4672269 6.63529412,14.5546218 6.7697479,14.605042 C6.7697479,14.605042 7.33445378,14.8134454 7.90588235,14.8134454 C8.13109244,14.8134454 8.35630252,14.7831933 8.54789916,14.692437 C9.22689076,14.3731092 9.62352941,13.2739496 9.62352941,13.2739496 C9.68739496,13.1226891 9.80168067,12.9983193 9.94621849,12.9210084 L9.94621849,12.9210084 L14.5310924,10.7798319 C14.6184874,10.7462185 14.7092437,10.7294118 14.8033613,10.7294118 C14.8739496,10.7294118 14.9445378,10.7394958 15.0117647,10.7630252 C15.0117647,10.7630252 15.5764706,10.9714286 16.1478992,10.9714286 C16.3731092,10.9714286 16.5983193,10.9411765 16.789916,10.8504202 C17.4689076,10.5310924 17.8655462,9.43193277 17.8655462,9.43193277 C17.8991597,9.33445378 17.8722689,9.27394958 17.805042,9.27394958 C17.7747899,9.27394958 17.7445378,9.28403361 17.7176471,9.29747899 L17.7176471,9.29747899 L17.0554622,9.60672269 C16.9882353,9.63697479 16.9142857,9.65042017 16.8403361,9.65042017 C16.7529412,9.65378151 16.6689076,9.63361345 16.5915966,9.59663866 L16.5915966,9.59663866 L15.9327731,9.24369748 C15.8016807,9.16638655 15.7310924,9.01848739 15.7546218,8.86722689 L15.7546218,8.86722689 L15.9092437,8.13445378 C15.9495798,7.97647059 16.0571429,7.84537815 16.1983193,7.76806723 L16.1983193,7.76806723 L16.8605042,7.45882353 C16.9882353,7.39831933 16.9848739,7.31092437 16.8504202,7.2605042 C16.8504202,7.2605042 16.2857143,7.05210084 15.7142857,7.05210084 Z" id="Servicio-tecnico-tv_1Light"></path>
        </g>
    </g>
</svg>

<svg width="24" height="24" viewBox="0 0 24 24" xmlns="http://www.w3.org/2000/svg"><path d="M15.415 19.798c.185 0 .336.152.336.336a.335.335 0 01-.336.337h-7.21a.337.337 0 01-.336-.337c0-.184.151-.336.336-.336h7.21zm4.588-15.771c1.217 0 2.142.353 2.75 1.049.571.655.864 1.623.864 2.877v5.926c0 1.254-.29 2.222-.864 2.877-.605.7-1.533 1.052-2.75 1.052H3.617c-1.217 0-2.141-.353-2.75-1.048-.571-.66-.864-1.627-.864-2.881V7.953c0-1.254.29-2.222.864-2.877.609-.696 1.533-1.05 2.75-1.05h16.386zm0 .672H3.617C1.61 4.7.676 5.734.676 7.956v5.926c0 2.222.934 3.257 2.94 3.257h16.387c2.007 0 2.942-1.035 2.942-3.257v-5.93c0-2.22-.935-3.253-2.942-3.253zm-4.289 1.684c.673-.003 1.301.222 1.365.242.32.118.528.387.541.7.014.312-.171.598-.48.742l-.592.276-.087.42.376.202.595-.276a.856.856 0 01.373-.087.74.74 0 01.612.312c.148.209.175.481.08.747-.09.245-.205.477-.336.702-.312.538-.679.908-1.089 1.1a2.19 2.19 0 01-.924.184c-.619 0-1.2-.188-1.341-.239h-.014l-4.538 2.115-.01.01c-.09.235-.198.46-.326.675-.312.538-.679.908-1.089 1.1a2.202 2.202 0 01-.924.184 4.38 4.38 0 01-1.368-.248c-.32-.118-.531-.39-.541-.7-.01-.309.174-.594.484-.739l.591-.276.088-.42-.377-.201-.591.275a.856.856 0 01-.374.088.74.74 0 01-.611-.313c-.148-.208-.175-.48-.08-.746.09-.246.204-.478.335-.703.313-.538.68-.907 1.09-1.099.261-.12.574-.185.924-.185.618 0 1.2.188 1.34.239h.014l4.535-2.114.01-.01c.09-.236.198-.461.326-.676.316-.538.682-.908 1.089-1.096a2.19 2.19 0 01.924-.185zm0 .67c-.225.002-.45.036-.638.123-.68.32-1.076 1.419-1.076 1.419a.71.71 0 01-.323.356L9.092 11.09a.752.752 0 01-.272.05.63.63 0 01-.208-.033s-.565-.209-1.136-.209c-.226 0-.45.03-.642.121-.68.32-1.076 1.419-1.076 1.419-.034.097-.007.158.06.158a.2.2 0 00.088-.024l.662-.309a.524.524 0 01.215-.044.536.536 0 01.249.054l.659.353a.367.367 0 01.175.377l-.155.73a.589.589 0 01-.29.362l-.661.31c-.128.063-.125.15.01.201 0 0 .564.208 1.136.208.225 0 .45-.03.642-.12.679-.32 1.076-1.42 1.076-1.42a.717.717 0 01.322-.352l4.585-2.141a.752.752 0 01.272-.05c.07 0 .142.01.209.033 0 0 .564.208 1.136.208.225 0 .45-.03.642-.12.679-.32 1.076-1.42 1.076-1.42.033-.097.006-.157-.061-.157a.2.2 0 00-.087.023l-.663.31a.524.524 0 01-.215.043.527.527 0 01-.248-.053l-.66-.353a.37.37 0 01-.177-.377l.154-.733a.586.586 0 01.29-.366l.662-.31c.127-.06.124-.147-.01-.197 0 0-.565-.209-1.137-.209z" fill="#5CB615" fill-rule="nonzero"/></svg>
